img/logo.svg

<?xml version="1.0" encoding="utf-8"?><svg xmlns="http://www.w3.org/2000/svg" xmlns:xlink="http://www.w3.org/1999/xlink" version="1.1" class="page" pageAlignment="none" x="0px" y="0px" width="372px" height="366px" viewBox="0 0 372 366" enable-background="new 0 0 372 366" xml:space="preserve"><defs/><style type="text/css"/><style type="text/css"/><g type="LAYER" name="workspace" id="workspace" locked="true"/><path transform="matrix(1 0 0 1 -216.0973236009791 -30.871046228710842)" width="372.2599999999999" height="364.94" isLocked="true" stroke-miterlimit="3" stroke="none" fill="#000" d="M401.744,31.3 C298.954,31.3 215.61400000000003,112.99 215.61400000000003,213.77 C215.61400000000003,314.55 298.95400000000006,396.24 401.744,396.24 C449.79400000000004,396.24 493.574,378.39 526.594,349.09000000000003 C560.344,319.15000000000003 582.844,277.24 587.124,230.19000000000003 C587.134,230.14000000000001 587.144,230.10000000000002 587.144,230.06000000000003 C587.494,226.10000000000002 587.724,222.10000000000002 587.824,218.08000000000004 C587.8539999999999,216.65000000000003 587.8739999999999,215.21000000000004 587.8739999999999,213.77000000000004 C587.874,112.99 504.534,31.3 401.744,31.3 Z M497.154,304.5 C473.914,313.4 463.524,305.39 457.194,298.44 L452.654,291.75 L462.514,286.06 L485.80400000000003,274.02 C500.90400000000005,266.21999999999997 506.86400000000003,247.48 499.05400000000003,232.38 L469.66400000000004,175.54 L480.33400000000006,170.32 L481.71400000000006,169.65 C487.79400000000004,166.08 489.02400000000006,156.9 484.46400000000006,149.15 C479.91400000000004,141.4 471.30400000000003,138.01 465.23400000000004,141.58 L427.53400000000005,161.33 L427.5040000000001,161.34 C427.4940000000001,161.31 427.4740000000001,161.28 427.45400000000006,161.24 C423.14400000000006,152.95000000000002 398.02400000000006,104.68 397.9340000000001,104.51000000000002 C394.8040000000001,98.46000000000002 387.7840000000001,95.87000000000002 382.27400000000006,98.73000000000002 C376.7540000000001,101.59000000000002 374.82400000000007,108.81000000000002 377.96400000000006,114.86000000000001 C378.46400000000006,115.83000000000001 403.55400000000003,163.38000000000002 407.8140000000001,171.47000000000003 C407.82400000000007,171.49000000000004 407.83400000000006,171.50000000000003 407.83400000000006,171.51000000000002 L394.83400000000006,178.24 L360.0540000000001,196.36 C360.0340000000001,196.32000000000002 360.01400000000007,196.29000000000002 359.9940000000001,196.25 C354.4440000000001,185.78 330.0240000000001,139.68 329.9340000000001,139.51 C326.8040000000001,133.45999999999998 319.7840000000001,130.87 314.27400000000006,133.73 C308.7540000000001,136.59 306.82400000000007,143.81 309.96400000000006,149.85999999999999 C310.45400000000006,150.79999999999998 334.744,196.04999999999998 340.3140000000001,206.42999999999998 C340.3540000000001,206.48999999999998 340.38400000000007,206.54999999999998 340.4140000000001,206.59999999999997 L334.6440000000001,209.60999999999996 L299.1540000000001,228.09999999999997 L299.1040000000001,228.12999999999997 L298.2340000000001,228.57999999999996 C292.1640000000001,232.14999999999995 290.9240000000001,241.31999999999996 295.4840000000001,249.06999999999996 C299.8540000000001,256.51 307.9540000000001,259.92999999999995 313.9640000000001,257.04999999999995 L313.9740000000001,257.03999999999996 L315.0040000000001,256.46999999999997 L325.1840000000001,250.73999999999998 L354.38400000000007,307.2 C362.1940000000001,322.28999999999996 380.9240000000001,328.26 396.02400000000006,320.45 L421.66400000000004,307.19 L429.40400000000005,303 L433.8740000000001,310.01 C435.4440000000001,313.5 458.88400000000007,343.90999999999997 504.1540000000001,326.5 C511.3240000000001,323.74 517.3440000000002,320.07 522.4240000000001,315.88 C493.3340000000001,348.65 450.5040000000001,369.36 402.70400000000006,369.36 C315.0540000000001,369.36 244.01400000000007,299.70000000000005 244.01400000000007,213.77 C244.01400000000007,127.83999999999997 314.9340000000001,58.19 402.58400000000006,58.19 C490.1840000000001,58.19 561.154,127.75999999999999 561.154,213.63 C558.264,243.82 548.404,284.86 497.154,304.5 Z "/></svg>

<?xml version="1.0" encoding="iso-8859-1"?>
<!-- Generator: Adobe Illustrator 19.0.0, SVG Export Plug-In . SVG Version: 6.00 Build 0)  -->
<svg version="1.1" id="Logo" xmlns="http://www.w3.org/2000/svg" xmlns:xlink="http://www.w3.org/1999/xlink" x="0px" y="0px"
	 viewBox="0 0 802 610" style="enable-background:new 0 0 802 610;" xml:space="preserve">
<path d="M401.744,31.3c-102.79,0-186.13,81.69-186.13,182.47s83.34,182.47,186.13,182.47c48.05,0,91.83-17.85,124.85-47.15
	c33.75-29.94,56.25-71.85,60.53-118.9c0.01-0.05,0.02-0.09,0.02-0.13c0.35-3.96,0.58-7.96,0.68-11.98c0.03-1.43,0.05-2.87,0.05-4.31
	C587.874,112.99,504.534,31.3,401.744,31.3z M497.154,304.5c-23.24,8.9-33.63,0.89-39.96-6.06l-4.54-6.69l9.86-5.69l23.29-12.04
	c15.1-7.8,21.06-26.54,13.25-41.64l-29.39-56.84l10.67-5.22l1.38-0.67c6.08-3.57,7.31-12.75,2.75-20.5
	c-4.55-7.75-13.16-11.14-19.23-7.57l-37.7,19.75l-0.03,0.01c-0.01-0.03-0.03-0.06-0.05-0.1c-4.31-8.29-29.43-56.56-29.52-56.73
	c-3.13-6.05-10.15-8.64-15.66-5.78c-5.52,2.86-7.45,10.08-4.31,16.13c0.5,0.97,25.59,48.52,29.85,56.61
	c0.01,0.02,0.02,0.03,0.02,0.04l-13,6.73l-34.78,18.12c-0.02-0.04-0.04-0.07-0.06-0.11c-5.55-10.47-29.97-56.57-30.06-56.74
	c-3.13-6.05-10.15-8.64-15.66-5.78c-5.52,2.86-7.45,10.08-4.31,16.13c0.49,0.94,24.78,46.19,30.35,56.57
	c0.04,0.06,0.07,0.12,0.1,0.17l-5.77,3.01l-35.49,18.49l-0.05,0.03l-0.87,0.45c-6.07,3.57-7.31,12.74-2.75,20.49
	c4.37,7.44,12.47,10.86,18.48,7.98l0.01-0.01l1.03-0.57l10.18-5.73l29.2,56.46c7.81,15.09,26.54,21.06,41.64,13.25l25.64-13.26
	l7.74-4.19l4.47,7.01c1.57,3.49,25.01,33.9,70.28,16.49c7.17-2.76,13.19-6.43,18.27-10.62c-29.09,32.77-71.92,53.48-119.72,53.48
	c-87.65,0-158.69-69.66-158.69-155.59s70.92-155.58,158.57-155.58c87.6,0,158.57,69.57,158.57,155.44
	C558.264,243.82,548.404,284.86,497.154,304.5z"/>
</svg>
